src/lib/packages/icons/src/assets/line/file-music.svg

<svg width="24" height="24" viewBox="0 0 24 24" fill="none" xmlns="http://www.w3.org/2000/svg">
<path d="M20.53 8.47L14.53 2.47C14.389 2.329 14.199 2.25 14 2.25H8C5.582 2.25 4.25 3.582 4.25 6V18C4.25 20.418 5.582 21.75 8 21.75H17C19.418 21.75 20.75 20.418 20.75 18V9C20.75 8.801 20.671 8.61 20.53 8.47ZM14.75 4.811L18.189 8.25H17C15.423 8.25 14.75 7.577 14.75 6V4.811ZM17 20.25H8C6.423 20.25 5.75 19.577 5.75 18V6C5.75 4.423 6.423 3.75 8 3.75H13.25V6C13.25 8.418 14.582 9.75 17 9.75H19.25V18C19.25 19.577 18.577 20.25 17 20.25ZM16.0669 10.002C15.7289 9.747 15.271 9.68501 14.781 9.82201L12.717 10.402C12.017 10.606 11.5281 11.255 11.5281 11.98V14.792C11.2771 14.697 11.0069 14.639 10.7229 14.639C9.4519 14.639 8.41699 15.673 8.41699 16.945C8.41699 18.217 9.4509 19.251 10.7229 19.251C11.9939 19.251 13.0281 18.217 13.0281 16.945V14.5C13.0281 14.37 13.0969 14.285 13.1299 14.276L15.5459 13.601C16.1769 13.426 16.584 12.914 16.584 12.296V11.185C16.583 10.53 16.3029 10.181 16.0669 10.002ZM10.7229 17.75C10.2789 17.75 9.91699 17.389 9.91699 16.944C9.91699 16.499 10.2779 16.138 10.7229 16.138C11.1659 16.138 11.5281 16.499 11.5281 16.944C11.5281 17.389 11.1659 17.75 10.7229 17.75ZM15.083 12.172L13.0271 12.746V11.979C13.0271 11.916 13.0709 11.86 13.1299 11.844L15.083 11.304V12.172Z" fill="currentColor"/>
</svg>

<svg xmlns="http://www.w3.org/2000/svg" width="24" height="24" fill="none"><path fill="currentColor" d="m20.53 8.47-6-6a.749.749 0 0 0-.53-.22H8C5.582 2.25 4.25 3.582 4.25 6v12c0 2.418 1.332 3.75 3.75 3.75h9c2.418 0 3.75-1.332 3.75-3.75V9a.747.747 0 0 0-.22-.53Zm-5.78-3.659 3.439 3.439H17c-1.577 0-2.25-.673-2.25-2.25V4.811ZM17 20.25H8c-1.577 0-2.25-.673-2.25-2.25V6c0-1.577.673-2.25 2.25-2.25h5.25V6c0 2.418 1.332 3.75 3.75 3.75h2.25V18c0 1.577-.673 2.25-2.25 2.25Zm-.933-10.248c-.338-.255-.796-.317-1.286-.18l-2.064.58c-.7.204-1.189.853-1.189 1.578v2.812a2.269 2.269 0 0 0-.805-.153 2.309 2.309 0 0 0-2.306 2.306 2.308 2.308 0 0 0 2.306 2.306 2.308 2.308 0 0 0 2.305-2.306V14.5c0-.13.069-.215.102-.224l2.416-.675c.63-.175 1.038-.687 1.038-1.305v-1.111c-.001-.655-.281-1.004-.517-1.183Zm-5.344 7.748a.807.807 0 0 1 0-1.612.807.807 0 0 1 0 1.612Zm4.36-5.578-2.056.574v-.767c0-.063.044-.119.103-.135l1.953-.54v.868Z"/></svg>
